X: 11
T: Far Away
C: Pete Jung
Z: Fermate
S: https://thesession.org/tunes/187#setting47882
R: waltz
M: 3/4
L: 1/8
K: Bmin
FA|:"Bm"B2 BA Bd|"A" cA E2 FA|"Bm" B2BA Bd|"A" e4 dc|
"G"B2 BA Bd|"A"cA E2 de|"Bm"fe dc "A"BA|1 "Bm" B2> A2FA:|2 "Bm" B2> c2de||
|:"D"f2 fe fa|"A"ec A2 de|"D"f2 fe fa|"A"e4 de|
"Bm"fdB "A" ecA|"G" dBG "A"cAE|"Bm"F2 B2 "A"A2|1 "Bm"B2>c2de:|2 "Bm" B4||

%-------------------- TUNE SEPARATOR --------------------%

